X:68
T:Lelenderis
C:Traditional
O:Lithuania
Z:Bert Van Vreckem, 2001-08-11 <http://flanders.blackmill.net/music/>
Z:Transcribed from a recording by Bert Blancquaert and Hilde Raskin (2001-08-09, Dworp, Flanders),
Z:performed by Edvinas Vilkas and Lina Duduliene
M:2/4
L:1/8
K:G
"G"BG DB,|"C"CE E2|"D"A/F/A/F/ AF|"G"GA B2|BG DB,|"C"CE E2|"D"A/F/A/F/ AF|"G"G2 G2||
"G"d/B/d/B/ dg|gd "D"c2|c/A/c/A/ cf|fe "G"d2|d/B/d/B/ dg|gd "D"c2|dc BA|"G"G2 G2|]

